www/static/img/overview/carousel.svg

<svg fill="none" height="64" viewBox="0 0 172 64" width="172" xmlns="http://www.w3.org/2000/svg"><g stroke="#005a7a" stroke-width="2"><rect fill="#fff" height="50" rx="3" width="64" x="54" y="7"/><path d="m131 7h23v50h-23c-1.657 0-3-1.3431-3-3v-44c0-1.65685 1.343-3 3-3z" fill="#fff"/><path d="m18 7h23c1.6569 0 3 1.34315 3 3v44c0 1.6569-1.3431 3-3 3h-23z" fill="#fff"/><path d="m154 0v64"/><path d="m18 0v64"/></g><path d="m165.764 37.6457 6.236-5.6457-6.275-5.6888c-.182-.1917-.44-.3112-.725-.3112-.552 0-1 .4477-1 1 0 .2495.091.4777.242.6528l4.758 4.3472-4.699 4.2849c-.187.2001-.301.4349-.301.7151 0 .5523.448 1 1 1 .306 0 .537-.1513.764-.3543z" fill="#005a7a"/><path d="m6.23642 26.3543-6.23642052 5.6457 6.27506052 5.6888c.18219.1917.43961.3112.72494.3112.55228 0 1-.4477 1-1 0-.2495-.09137-.4777-.24247-.6528l-4.75753-4.3472 4.69905-4.2849c.18652-.2001.30095-.4349.30095-.7151 0-.5523-.44772-1-1-1-.30614 0-.53661.1513-.76358.3543z" fill="#005a7a"/></svg>

<svg width="172" height="64" viewBox="0 0 172 64" fill="none" xmlns="http://www.w3.org/2000/svg">
<rect x="54" y="7" width="64" height="50" rx="3" fill="white" stroke="#005A7A" stroke-width="2"/>
<path d="M131 7H154V57H131C129.343 57 128 55.6569 128 54V10C128 8.34315 129.343 7 131 7Z" fill="white" stroke="#005A7A" stroke-width="2"/>
<path d="M18 7H41C42.6569 7 44 8.34315 44 10V54C44 55.6569 42.6569 57 41 57H18V7Z" fill="white" stroke="#005A7A" stroke-width="2"/>
<line x1="154" y1="4.37114e-08" x2="154" y2="64" stroke="#005A7A" stroke-width="2"/>
<line x1="18" y1="4.37114e-08" x2="18" y2="64" stroke="#005A7A" stroke-width="2"/>
<path d="M165.764 37.6457L172 32L165.725 26.3112C165.543 26.1195 165.285 26 165 26C164.448 26 164 26.4477 164 27C164 27.2495 164.091 27.4777 164.242 27.6528L169 32L164.301 36.2849C164.114 36.485 164 36.7198 164 37C164 37.5523 164.448 38 165 38C165.306 38 165.537 37.8487 165.764 37.6457Z" fill="#005A7A"/>
<path d="M6.23642 26.3543L-5.24537e-07 32L6.27506 37.6888C6.45725 37.8805 6.71467 38 7 38C7.55228 38 8 37.5523 8 37C8 36.7505 7.90863 36.5223 7.75753 36.3472L3 32L7.69905 27.7151C7.88557 27.515 8 27.2802 8 27C8 26.4477 7.55228 26 7 26C6.69386 26 6.46339 26.1513 6.23642 26.3543Z" fill="#005A7A"/>
</svg>
